svgs/sharp-light/user-chef.svg

<svg xmlns="http://www.w3.org/2000/svg" viewBox="0 0 448 512"><!--! Font Awesome Pro 6.6.0 by @fontawesome - https://fontawesome.com License - https://fontawesome.com/license (Commercial License) Copyright 2024 Fonticons, Inc. --><path d="M128 32c17.7 0 32 14.3 32 32l0 16 32 0 0-16c0-17.7 14.3-32 32-32s32 14.3 32 32l0 16 32 0 0-16c0-17.7 14.3-32 32-32s32 14.3 32 32c0 13.9-8.9 25.8-21.3 30.2L320 98l0 11.3 0 34.7-192 0 0-34.7L128 98l-10.7-3.8C104.9 89.8 96 77.9 96 64c0-17.7 14.3-32 32-32zm48-10.3C164.3 8.4 147.1 0 128 0C92.7 0 64 28.7 64 64c0 23.7 12.9 44.4 32 55.4L96 160l0 16c0 70.7 57.3 128 128 128s128-57.3 128-128l0-16 0-40.6c19.1-11.1 32-31.7 32-55.4c0-35.3-28.7-64-64-64c-19.1 0-36.3 8.4-48 21.7C260.3 8.4 243.1 0 224 0s-36.3 8.4-48 21.7zM128 176l192 0c0 53-43 96-96 96s-96-43-96-96zM336 353.3l0 30.7 32 0 8.2 0L405 480l-245 0 0-53.3 176-73.3zM128 480l-85 0 28.8-96 8.2 0 32 0 0-32 0-1.2 76 29.6-50.2 20.9-9.8 4.1 0 10.7 0 64zm310.4 0L400 352l-32 0 0-13.7 0-18.3 0-16-32 12.4L224 360 112 316.4 80 304l0 16 0 18.3L80 352l-32 0L9.6 480 0 512l33.4 0 381.2 0 33.4 0-9.6-32zM240 448a16 16 0 1 0 0-32 16 16 0 1 0 0 32zm80-16a16 16 0 1 0 -32 0 16 16 0 1 0 32 0z"/></svg>

<svg xmlns="http://www.w3.org/2000/svg" viewBox="0 0 448 512"><!--! Font Awesome Pro 6.4.2 by @fontawesome - https://fontawesome.com License - https://fontawesome.com/license (Commercial License) Copyright 2023 Fonticons, Inc. --><path d="M128 32c17.7 0 32 14.3 32 32V80h32V64c0-17.7 14.3-32 32-32s32 14.3 32 32V80h32V64c0-17.7 14.3-32 32-32s32 14.3 32 32c0 13.9-8.9 25.8-21.3 30.2L320 98v11.3V144H128V109.3 98l-10.7-3.8C104.9 89.8 96 77.9 96 64c0-17.7 14.3-32 32-32zm48-10.3C164.3 8.4 147.1 0 128 0C92.7 0 64 28.7 64 64c0 23.7 12.9 44.4 32 55.4V160v16c0 70.7 57.3 128 128 128s128-57.3 128-128V160 119.4c19.1-11.1 32-31.7 32-55.4c0-35.3-28.7-64-64-64c-19.1 0-36.3 8.4-48 21.7C260.3 8.4 243.1 0 224 0s-36.3 8.4-48 21.7zM128 176H320c0 53-43 96-96 96s-96-43-96-96zM336 353.3V384h32 8.2L405 480H160V426.7l176-73.3zM128 480H43l28.8-96H80h32V352v-1.2l76 29.6-50.2 20.9-9.8 4.1V416v64zm310.4 0L400 352H368V338.3 320 304l-32 12.4L224 360 112 316.4 80 304v16 18.3V352H48L9.6 480 0 512H33.4 414.6 448l-9.6-32zM240 448a16 16 0 1 0 0-32 16 16 0 1 0 0 32zm80-16a16 16 0 1 0 -32 0 16 16 0 1 0 32 0z"/></svg>
